!!!!SEGMENT: pl-kk--kk-i-7--105_gorczycki-grzegorz-gerwazy--omni-die-dic-mariae.krn
!!!cenid: 16xx:944
!!!COM: Gorczycki, Grzegorz Gerwazy
!!!COM-rismID: pe30009207
!!!CDT: ~1666-1734/04/30
!!!CNT: Polish
!!!OTL: Omni die dic Mariae
!!!PDT:
!!!AGN: Sacred
!!!YEC: Copyright 2022 Narodowy Instytut Fryderyka Chopina (https://polishscores.org)
!!!YEM: License CC-BY-4.0 (https://creativecommons.org/licenses/by/4.0)
!!!SMS-siglum: PL-Kk
!!!SMS-shelfmark: Kk.I.7
!!!SMS-shelfwork: 105 W
!!!SMS-variant:
!!!SMS-altvar:
!!!NIFC-rismSourceID: 300258077
!!!NIFC-rismChildID: 300258182
!!!NIFC-islandoraID: pl-kk:1956
!!!URL-pdf-islandora: https://repozytorium.nifc.pl/islandora/object/pl-kk%3A1956/datastream/PDF/view
!!!URL-scan: https://polish.musicsources.pl/pl/lokalizacje/galeria/rekopisy/6140 @EN{Scan on Polish Music Sources Website} @PL{Skany w portalu Dziedzictwo Muzyki Polskiej w otwartym dostępie}
!!!IIIF: https://repozytorium.nifc.pl/islandora/object/pl-kk%3A1956/datastream/IIIF/view
!!!ONB-nifc: UWAGA: C (skan 0079, s.150-151), A (0157, s.134-135), T(0244, s.150-151), B(0331, s.147). Następny utwór: Stabat Mater
!!!AIN: 1 alto 1 bass 1 soprn 1 tenor
!!!key: g
**kern	**fba	**text	**text	**text	**kern	**text	**text	**text	**text	**kern	**text	**text	**text	**kern	**text	**text	**text
*part4	*part4	*part4	*part4	*part4	*part3	*part3	*part3	*part3	*part3	*part2	*part2	*part2	*part2	*part1	*part1	*part1	*part1
*staff4	*	*staff4	*staff4	*staff4	*staff3	*staff3	*staff3	*staff3	*staff3	*staff2	*staff2	*staff2	*staff2	*staff1	*staff1	*staff1	*staff1
*I"BASSUS.	*	*	*	*	*I"TENOR.	*	*	*	*	*I"ALTVS.	*	*	*	*I"CANTVS.	*	*	*
*mI"Basso	*	*	*	*	*mI"Tenore	*	*	*	*	*mI"Alto	*	*	*	*mI"Soprano	*	*	*
*I'B	*	*	*	*	*I'T	*	*	*	*	*I'A	*	*	*	*I'S	*	*	*
*Ibass	*	*	*	*	*Itenor	*	*	*	*	*Ialto	*	*	*	*Isoprn	*	*	*
*ICvox	*	*	*	*	*ICvox	*	*	*	*	*ICvox	*	*	*	*ICvox	*	*	*
*clefF4	*	*	*	*	*clefC4	*	*	*	*	*clefC3	*	*	*	*clefC4	*	*	*
*	*	*	*	*	*mclefGv2	*	*	*	*	*mclefG2	*	*	*	*mclefG2	*	*	*
!	!	!	!	!	!	!	!	!	!	!	!	!	!	!LO:MO:mod=*null	!	!	!
*	*	*	*	*	*	*	*	*	*	*	*	*	*	*ITrd-8c12	*	*	*
*k[b-]	*	*	*	*	*k[b-]	*	*	*	*	*k[b-]	*	*	*	*k[b-]	*	*	*
*mk[b-e-]	*	*	*	*	*mk[b-e-]	*	*	*	*	*mk[b-e-]	*	*	*	*mk[b-e-]	*	*	*
*g:	*	*	*	*	*g:	*	*	*	*	*g:	*	*	*	*g:	*	*	*
*M3/2	*	*	*	*	*M3/2	*	*	*	*	*M3/2	*	*	*	*M3/2	*	*	*
=1	=1	=1	=1	=1	=1	=1	=1	=1	=1	=1	=1	=1	=1	=1	=1	=1	=1
!	!	!LO:MO:null:mod=*v&colon;1	!LO:MO:null:mod=*v&colon;3	!LO:MO:null:mod=*v&colon;5	!	!LO:MO:null:mod=*v&colon;1	!LO:MO:null:mod=*v&colon;3	!LO:MO:null:mod=*v&colon;5	!	!	!LO:MO:null:mod=*v&colon;1	!LO:MO:null:mod=*v&colon;3	!LO:MO:null:mod=*v&colon;5	!	!LO:MO:null:mod=*v&colon;1	!LO:MO:null:mod=*v&colon;3	!LO:MO:null:mod=*v&colon;5
*xywh-#331:7212,355,6459,1638	*null	*null	*null	*	*xywh-#244:793,1861,6538,1466	*null	*null	*null	*	*xywh-#157:939,2025,6487,2864	*null	*null	*null	*xywh-#79:760,2061,6447,1422	*null	*null	*null
!LO:TX:t=P:problem=przy kluczu BB- B-	!	!	!	!	!	!	!	!	!	!	!	!	!	!	!	!	!
!LO:TX:a:mod= :t=De B.V.M.	!	!	!	!	!	!	!	!	!	!	!	!	!	!LO:TX:t=P:problem=błędny klucz - transpozycja o oktawę	!	!	!
1G	.	Om-	Ip-	Haec	1B-	Om-	Ip-	Haec	.	1d	Om-	Ip-	Haec	1g	Om-	Ip-	Haec
*2\right	*	*	*	*	*2\right	*	*	*	*	*2\right	*	*	*	*	*	*	*
2F\	5	-ni	-sam	a-	2c\	-ni	-sam	a-	.	2f\	-ni	-sam	a-	2a/	-ni	-sam	a-
=2	=2	=2	=2	=2	=2-	=2-	=2-	=2-	=2	=2-	=2-	=2-	=2-	=2	=2	=2	=2
1B-	.	di-	co-	-man-	1d	di-	co-	-man-	.	1f	di-	co-	-man-	1b-	di-	co-	-man-
*	*	*	*	*	*	*	*	*	*	*	*	*	*	*2\right	*	*	*
2B-\	.	-e	-le	-da	2d\	-e	-le	-da	.	2f\	-e	-le	-da	2b-\	-e	-le	-da
=3	=3	=3	=3	=3	=3	=3	=3	=3	=3	=3	=3	=3	=3	=3	=3	=3	=3
1F	.	dic	ut	et	1c	dic	ut	et	.	1f	dic	ut	et	1a	dic	ut	et
2G\	5	Ma-	de	lau-	2B-\	Ma-	de	lau-	.	2d\	Ma-	de	lau-	2g/	Ma-	de	lau-
=4-	=4-	=4-	=4-	=4-	=4-	=4-	=4-	=4-	=4	=4-	=4-	=4-	=4-	=4-	=4-	=4-	=4-
1D	4	-ri-	mo-	-dan-	1A	-ri-	mo-	-dan-	.	1d	-ri-	mo-	-dan-	1g	-ri-	mo-	-dan-
2D/	#3r	-ae	-le	-da	2A/	-ae	-le	-da	.	2d\	-ae	-le	-da	2f#X/	-ae	-le	-da
=5	=5	=5	=5	=5	=5	=5	=5	=5	=5	=5	=5	=5	=5	=5	=5	=5	=5
1BB-	.	me-	cri-	cun-	1d	me-	cri-	cun-	.	1f	me-	cri-	cun-	1b-	me-	cri-	cun-
!LO:SIC:o=2E-X\	!	!	!	!	!	!	!	!	!	!	!	!	!	!	!	!	!
2E-	.	-a	-mi-	-ctis	2B-\	-a	-mi-	-ctis	.	2g\	-a	-mi-	-ctis	2g/	-a	-mi-	-ctis
=6	=6	=6	=6	=6	=6-	=6-	=6-	=6-	=6	=6-	=6-	=6-	=6-	=6	=6	=6	=6
!	!	!	!	!	!LO:SIC:o=1e-X	!	!	!	!	!	!	!	!	!	!	!	!
1C	.	lau-	-num	spe-	1e-	lau-	-num	spe-	.	1g	lau-	-num	spe-	1cc	lau-	-num	spe-
!	!	!	!LO:MO:mod=te	!	!	!	!	!	!	!	!	!	!	!	!	!	!
[<2D\	6_	-des	Te	-ci-	1d\	-des	te	-ci-	.	2d\	-des	te	-ci-	2b-\	-des	te	-ci-
=7	=7	=7	=7	=7	=7-	=7-	=7-	=7-	=7	=7	=7	=7	=7	=7-	=7-	=7-	=7-
!LO:N:xstem:cue	!	!	!	!	!	!	!	!	!	!	!	!	!	!	!	!	!
4D\]	.	.	.	.	.	.	.	.	.	1f	a-	li-	-a-	1b-	a-	li-	-a-
!LO:SIC:o=4E-X\	!	!	!	!	!	!	!	!	!	!	!	!	!	!	!	!	!
4E-	X	.	.	.	.	.	.	.	.	.	.	.	.	.	.	.	.
2.F\	4	a-	li-	-a-	2.c\	a-	li-	-a-	.	.	.	.	.	.	.	.	.
.	3	.	.	.	.	.	.	.	.	2f\	-ni-	-be-	-li-	2a\	-ni-	-be-	-li-
4FF/	.	-ni-	-be-	-li-	4c\	-ni-	-be-	-li-	.	.	.	.	.	.	.	.	.
=8	=8	=8	=8	=8	=8-	=8-	=8-	=8-	=8	=8-	=8-	=8-	=8-	=8	=8	=8	=8
!	!	!	!LO:MO:mod=-ret	!	!	!LO:MO:mod=-ma	!LO:MO:mod=-ret	!LO:MO:mod=-ter	!	!	!LO:MO:mod=-ma	!LO:MO:mod=-ret	!LO:MO:mod=-ter	!	!LO:MO:mod=-ma	!LO:MO:mod=-ret	!
1.BB-	.	-ma	-ret,	-ter	1.B-	-ma,	-ret,	-ter,	.	1.d	-ma.	-ret,	-ter,	1.b-	-ma:	-ret:	-ter
=9	=9	=9	=9	=9	=9	=9	=9	=9	=9	=9	=9	=9	=9	=9	=9	=9	=9
!	!	!	!	!	!	!	!	!	!	!	!	!	!	!LO:SIC:o=1b-X	!	!	!
1B-	.	E-	Hanc	Ve-	1d	E-	Hanc	Ve-	.	1f	E-	Hanc	Ve-	1b-	E-	Hanc	Ve-
2B-\	.	-jus	ap-	-ne-	2d\	-jus	ap-	-ne-	.	2f\	-jus	ap-	-ne-	2b-\	-jus	ap-	-ne-
=10-	=10-	=10-	=10-	=10-	=10-	=10-	=10-	=10-	=10	=10-	=10-	=10-	=10-	=10	=10	=10	=10
1F	4	fes-	-pel-	-ra-	1c	fes-	-pel-	-ra-	.	1f	fes-	-pel-	-ra-	1b-	fes-	-pel-	-ra-
2F\	3	-ta	-la	-ri	2c\	-ta	-la	-ri	.	2f\	-ta	-la	-ri	2a\	-ta	-la	-ri
=11	=11	=11	=11	=11	=11	=11	=11	=11	=11	=11	=11	=11	=11	=11	=11	=11	=11
!	!	!	!LO:MO:mod=ne	!	!	!	!	!	!	!	!	!	!	!	!	!	!
1G	9	e-	nè	prae-	1B-	e-	ne	prae-	.	1d	e-	ne	prae-	2a/	e-	ne	prae-
.	8	.	.	.	.	.	.	.	.	.	.	.	.	1g	-jus	pro-	-di-
2G\	.	-jus	pro-	-di-	2B-\	-jus	pro-	-di-	.	2g\	-jus	pro-	-di-	.	.	.	.
=12	=12	=12	=12	=12	=12-	=12-	=12-	=12-	=12	=12-	=12-	=12-	=12-	=12	=12	=12	=12
1D	4	ges-	-cel-	-ca-	1A	ges-	-cel-	-ca-	.	1g	ges-	-cel-	-ca-	1dd	ges-	-cel-	-ca-
2D/	#3r	-ta	-la	-ri	2A/	-ta	-la	-ri	.	2f#X\	-ta	-la	-ri	2dd\	-ta	-la	-ri
*custos:G	*	*	*	*	*custos:B	*	*	*	*	*custos:g	*	*	*	*custos:d	*	*	*
!LO:LB:g=original	!	!	!	!	!	!	!	!	!	!	!	!	!	!	!	!	!
=13	=13	=13	=13	=13	=13	=13	=13	=13	=13	=13	=13	=13	=13	=13	=13	=13	=13
*xywh-#331:7195,1659,6245,1604	*	*	*	*	*xywh-#244:7245,1551,6290,1640	*	*	*	*	*xywh-#157:7388,1911,6231,1394	*	*	*	*xywh-#79:7295,1947,6037,1422	*	*	*
!	!	!	!LO:MO:mod=vi-	!LO:MO:mod=e-	!	!	!LO:MO:mod=vi-	!LO:MO:mod=e-	!	!	!	!LO:MO:mod=vi-	!	!	!	!LO:MO:mod=vi-	!
2.G\	.	co-	Vi-	E-	2.B-\	co-	Vi-	E-	.	2.g\	co-	Vi-	e-	2.dd\	co-	Vi-	e-
!	!	!	!	!	!	!	!	!	!	!	!	!	!	!	!LO:MO:mod=-le	!	!
4G\	.	-le	-ti-	-am	4c\	-le	-ti-	-am	.	4a\	-le	-ti-	-am	4cc\	-le,	-ti-	-am
!	!	!	!	!	!	!	!	!	!	!LO:SIC:o=2b-X\	!	!	!	!LO:SIC:o=2b-X\	!	!	!
2G\	.	de-	-o-	de-	2d\	de-	-o-	de-	.	2b-	de-	-o-	de-	2b-	de-	-o-	de-
=14	=14	=14	=14	=14	=14	=14	=14	=14	=14	=14-	=14-	=14-	=14-	=14	=14	=14	=14
!	!	!	!	!	!	!	!	!	!	!	!	!	!	!LO:SIC:o=2ee-X\	!	!	!
2C/	6 5 -	-vo-	-rum	-cet	(4c\	-vo-	-rum	-cet	.	(4a\	-vo-	-rum	-cet	2ee-	-vo-	-rum	-cet
.	.	.	.	.	4B-\)	.	.	.	.	4g\)	.	.	.	.	.	.	.
2.D/	5 4	-tiſ-	su-	ju-	2.A/	-tiſ-	su-	ju-	.	2g\	-tiſ-	su-	ju-	2.dd\	-tiſ-	su-	ju-
.	.	.	.	.	.	.	.	.	.	2f#X\	-si-	-pe-	-gi-	.	.	.	.
4D/	x #3r	-si-	-pe-	-gi-	4A/	-si-	-pe-	-gi-	.	.	.	.	.	4cc\	-si-	-pe-	-gi-
=15	=15	=15	=15	=15	=15-	=15-	=15-	=15-	=15	=15-	=15-	=15-	=15-	=15-	=15-	=15-	=15-
!	!	!	!	!	!	!	!	!LO:MO:mod=-ter.	!	!	!LO:MO:mod=-ma.	!LO:MO:mod=-ret.	!	!	!	!	!LO:MO:mod=-ter.
1.GG	x n	-ma.	-ret.	-ter.	1.G	-ma.	-ret.	-ter	.	1.g	-ma	-ret:	-ter.	1.b	-ma.	-ret.	-ter,
=16||	=16||	=16||	=16||	=16||	=16||	=16||	=16||	=16||	=16||	=16||	=16||	=16||	=16||	=16||	=16||	=16||	=16||
*M4/4	*	*	*	*	*M4/4	*	*	*	*	*M4/4	*	*	*	*M4/4	*	*	*
*met(c)	*	*	*	*	*met(c)	*	*	*	*	*met(c)	*	*	*	*met(c)	*	*	*
*mmet(c)	*	*	*	*	*mmet(c)	*	*	*	*	*mmet(c)	*	*	*	*mmet(c)	*	*	*
!LO:TX:a:mod= :t=Lente.	!	!LO:MO:null:mod=*v&colon;2	!LO:MO:null:mod=*v&colon;4	!LO:MO:null:mod=*v&colon;6	!	!LO:MO:null:mod=*v&colon;2	!LO:MO:null:mod=*v&colon;4	!LO:MO:null:mod=*v&colon;6	!	!	!LO:MO:null:mod=*v&colon;2	!LO:MO:null:mod=*v&colon;4	!LO:MO:null:mod=*v&colon;6	!	!LO:MO:null:mod=*v&colon;2	!LO:MO:null:mod=*v&colon;4	!LO:MO:null:mod=*v&colon;6
*	*	*null	*null	*null	*	*null	*null	*null	*	*	*null	*null	*null	*	*null	*null	*null
!LO:SIC:o=4E-X\	!	!	!	!	!	!	!	!	!	!	!	!	!	!	!	!	!
4E-	.	Con-	Haec	Ip-	4B-\	Con-	Haec	Ip-	.	4g\	Con-	Haec	Ip-	4g/	Con-	Haec	Ip-
4D\	6	-tem-	per-	-sa	4B-\	-tem-	per-	-sa	.	4f\	-tem-	per-	-sa	4b-\	-tem-	per-	-sa
4E-\	.	-pla-	-so-	do-	4B-\	-pla-	-so-	do-	.	4g\	-pla-	-so-	do-	4g/	-pla-	-so-	do-
!	!	!	!LO:MO:mod=-na	!	!	!	!	!	!	!	!	!	!	!	!	!	!
4BB-/	.	-re	-na,	-net	4B-\	-re	-na	-net	.	4f\	-re	-na	-net	4b-\	-re	-na	-net
=17	=17	=17	=17	=17	=17	=17	=17	=17	=17	=17	=17	=17	=17	=17	=17	=17	=17
!	!	!	!	!	!	!	!	!	!	!	!	!	!	!LO:SIC:o=4a/	!	!	!
4F\	n	et	no-	ut	4c\	et	no-	ut	.	4f\	et	no-	ut	4a	et	no-	ut
4En\	6	mi-	-bis	quod	4c\	mi-	-bis	quod	.	4c/	mi-	-bis	quod	4g/	mi-	-bis	quod
4F\	.	-ra-	do-	mo-	4c\	-ra-	do-	mo-	.	4f\	-ra-	do-	mo-	4a/	-ra-	do-	mo-
4C/	.	-re	-na	-net	4c\	-re	-na	-net	.	4en\	-re	-na	-net	4g/	-re	-na	-net
=18	=18	=18	=18	=18	=18	=18	=18	=18	=18	=18	=18	=18	=18	=18	=18	=18	=18
!	!	!	!	!LO:MO:mod=na	!	!	!	!LO:MO:mod=na-	!	!	!	!	!LO:MO:mod=na-	!	!	!	!LO:MO:mod=na-
4G\	-	e-	con-	Na-	4d\	e-	con-	Na-	.	4d\	e-	con-	Na-	4b-\	e-	con-	Na-
!	!	!	!	!LO:MO:mod=-tus	!	!	!	!	!	!	!	!	!LO:MO:mod=-tus	!	!	!	!LO:MO:mod=-tus
4F#X\	6	-jus	-tu-	-t(us)	4d\	-jus	-tu-	-tus	.	4f#X\	-jus	-tu-	-t(us)	4a\	-jus	-tu-	-t(us)
4G\	.	cel-	-lit	e-	4d\	cel-	-lit	e-	.	4d\	cel-	-lit	e-	4b-\	cel-	-lit	e-
!	!	!	!	!	!LO:SIC:o=4e-X\	!	!	!	!	!	!	!	!	!	!	!	!
4C/	-	-ſi-	cae-	-jus	4e-	-ſi-	cae-	-jus	.	4g\	-ſi-	cae-	-jus	4cc\	-ſi-	cae-	-jus
=19	=19	=19	=19	=19	=19	=19	=19	=19	=19	=19	=19	=19	=19	=19	=19	=19	=19
4.D/	5 4	-tu-	-les-	fa-	4.d\	-tu-	-les-	fa-	.	4.g\	-tu-	-les-	fa-	4.a/	-tu-	-leſ-	fa-
8D/	#3r	-di-	-ti-	-ci-	8d\	-di-	-ti-	-ci-	.	8f#X\	-di-	-ti-	-ci-	8a/	-di-	-ti-	-ci-
!	!	!LO:MO:mod=-nem	!LO:MO:mod=-a	!LO:MO:mod=-am	!	!LO:MO:mod=-nem	!	!LO:MO:mod=-am	!	!	!LO:MO:mod=-nem	!	!	!	!LO:MO:mod=-nem	!	!
2GG/	.	-nem;	-a:	-am:	2d\	-nem,	-a	-am,	.	2g\	-nem,	-a	-am	2g/	-nem,	-a	-am
=20	=20	=20	=20	=20	=20	=20	=20	=20	=20	=20	=20	=20	=20	=20	=20	=20	=20
!LO:SIC:o=8C/L	!	!LO:MO:mod=Dic	!	!	!LO:SIC:o=4e-X\	!LO:MO:mod=Dic	!	!	!	!	!LO:MO:mod=Dic	!	!LO:MO:mod=Ut	!	!LO:MO:mod=Dic	!	!
(8CL	.	dic	Haec	Ut	4e-	dic	Haec	Ut	.	4g\	dic	Haec	ut	4g/	dic	Haec	Ut
!LO:SIC:o=8D/J	!	!	!	!	!	!	!	!	!	!	!	!	!	!	!	!	!
8DJ)	.	.	.	.	.	.	.	.	.	.	.	.	.	.	.	.	.
!LO:SIC:o=(8E-X\L	!	!	!LO:MO:mod=re-	!	!	!	!LO:MO:mod=re-	!	!	!	!	!LO:MO:mod=re-	!	!	!	!LO:MO:mod=re-	!
(8E-L	6	fe-	Re-	fi-	4e-\	fe-	Re-	fi-	.	4g\	fe-	Re-	fi-	4cc\	fe-	Re-	fi-
8F\J)	5	.	.	.	.	.	.	.	.	.	.	.	.	.	.	.	.
4G\	5 4	-li-	-gi-	-ni-	4d\	-li-	-gi-	-ni-	.	4g\	-li-	-gi-	-ni-	4cc\	-li-	-gi-	-ni-
!	!	!	!	!LO:MO:mod=-ta	!	!	!	!LO:MO:mod=-ta	!	!	!	!	!LO:MO:mod=-ta	!	!	!	!
4G\	n3r	-cem	-na	-tâ	4d\	-cem	-na	-tâ	.	4g\	-cem	-na	-tâ	4b\	-cem	-na	-ta
*custos:E-	*	*	*	*	*custos:e-	*	*	*	*	*custos:g	*	*	*	*custos:B-	*	*	*
!LO:LB:g=original	!	!	!	!	!LO:LB:g=original	!	!	!	!	!LO:LB:g=original	!	!	!	!LO:LB:g=original	!	!	!
=21	=21	=21	=21	=21	=21	=21	=21	=21	=21	=21	=21	=21	=21	=21	=21	=21	=21
*xywh-#331:7255,2886,6228,1750	*	*	*	*	*xywh-#244:1166,2955,6091,1727	*	*	*	*	*	*	*	*	*xywh-#79:1039,3108,6177,1683	*	*	*
!LO:SIC:o=(8E-X\L	!	!LO:MO:mod=ge-	!LO:MO:mod=nos	!	!LO:SIC:o=4e-X\	!LO:MO:mod=ge-	!	!	!LO:MO:mod=.	!	!LO:MO:mod=ge-	!	!LO:MO:mod=car-	!LO:SIC:o=4b-\	!LO:MO:mod=ge-	!LO:MO:mod=nos	!LO:MO:mod=car-
(8E-L	.	Ge-	Nos	car-	4e-	Ge-	nos	car-	[[li-	4g\	Ge-	nos	Car-	4b-X	Ge-	Nos	Car-
8F\J)	.	.	.	.	.	.	.	.	.	.	.	.	.	.	.	.	.
!	!	!	!	!	!	!	!	!	!LO:MO:mod=.	!	!	!	!	!LO:SIC:o=4ee-X\	!	!	!
(8G\L	6	-ni-	di-	-nis	4e-\	-ni-	di-	-nis	-cem]]	4g\	-ni-	di-	-nis	4ee-	-ni-	di-	-nis
8A-X\J)	5	.	.	.	.	.	.	.	.	.	.	.	.	.	.	.	.
!	!	!	!	!LO:MO:mod=vi-	!	!	!	!LO:MO:mod=vi-	!	!	!	!	!LO:MO:mod=vi-	!	!	!	!LO:MO:mod=vi-
4B-\	6 4	-tri-	-vi-	Vi-	4B-\	-tri-	-vi-	Vi-	.	4g\	-tri-	-vi-	Vi-	4ee-\	-tri-	-vi-	Vi-
!	!	!LO:MO:mod=-cem	!	!LO:MO:mod=-ta	!	!	!	!LO:MO:mod=-ta	!	!LO:SIC:o=4fn\	!	!	!	!	!	!	!
4BB-/	5 3	-cem,	-na	-tâ	4B-,<\	-cem	-na	-tâ	.	4f	-cem	-na	-ta	4dd\	-cem	-na	-ta
=22	=22	=22	=22	=22	=22	=22	=22	=22	=22	=22	=22	=22	=22	=22	=22	=22	=22
!	!	!	!	!	!	!	!	!	!	!	!	!	!	!LO:SIC:o=4ee-X\	!	!	!
4G\	-6r	dic	il-	lae-	4B-\	dic	il-	lae-	.	4g\	dic	il-	lae-	4ee-	dic	il-	lae-
!	!	!	!	!LO:MO:mod=-tus	!	!	!	!	!	!	!	!	!	!	!	!	!
4G\	.	be-	-lu-	-t(us)	4B-\	be-	-lu-	-tus	.	4g\	be-	-lu-	-tus	4ee-\	be-	-lu-	-tus
!	!	!	!	!	!	!	!	!	!	!LO:SIC:o=4e-X\	!	!	!	!	!	!	!
4A-X\	-5r	-a-	-ſtra-	hunc	(8c\L	-a-	-stra-	hunc	.	4e-	-a-	-stra-	hunc	4cc\	-a-	-ſtra-	hunc
.	.	.	.	.	8d\J)	.	.	.	.	.	.	.	.	.	.	.	.
!	!	!	!	!	!LO:SIC:o=4e-X\	!LO:MO:mod=-tam	!	!	!	!	!	!	!	!	!	!	!
4A-\	.	-tam	-vit	a-	4e-	-ta(m)	-vit	a-	.	4a-X\	-tam	-vit	a-	4cc\	-tam	-vit	a-
=23	=23	=23	=23	=23	=23	=23	=23	=23	=23	=23	=23	=23	=23	=23	=23	=23	=23
!	!	!	!	!	!LO:SIC:v:o=4.e\	!	!	!	!	!	!	!	!	!	!	!	!
4.B-\	5 4	Vir-	gra-	-ſpi-	4.e-	Vir-	gra-	-ſpi-	.	4.f\	Vir-	gra-	-ſpi-	4.b-\	Vir-	gra-	-ſpi-
8BB-/	x 3	-gi-	-ti-	-ci-	8d\	-gi-	-ti-	-ci-	.	8f\	-gi-	-ti-	-ci-	8b-\	-gi-	-ti-	-ci-
!LO:SIC:o=2E-X\	!	!LO:MO:mod=-nem	!LO:MO:mod=-a	!LO:MO:mod=-am	!LO:SIC:v:o=2e\	!	!	!	!	!	!LO:MO:mod=-nem	!LO:MO:mod=-a	!	!	!LO:MO:mod=-nem	!	!
2E-	.	-nem,	-a,	-am,	2e-	-nem	-a	-am	.	2g\	-nem,	-â	-am	2b-\	-nem,	-a	-am
=24	=24	=24	=24	=24	=24	=24	=24	=24	=24	=24	=24	=24	=24	=24	=24	=24	=24
!	!	!	!	!	!LO:SIC:o=4B-X\	!	!	!	!	!	!	!	!	!	!	!	!
4D/	6	dic	il-	lae-	4B-	dic	il-	lae-	.	4f\	dic	il-	lae-	4dd\	dic	il-	lae-
4D/	.	be-	-lu-	-tus	4f\	be-	-lu-	-tus	.	4f\	be-	-lu-	-tus	4dd\	be-	-lu-	-tus
!LO:SIC:o=4E-X\	!	!	!	!	!LO:SIC:o=4e-X\	!	!	!	!	!	!	!	!	!	!	!	!
4E-	6 3_	-a-	-stra-	hunc	4e-	-a-	-stra-	hunc	.	4g\	-a-	-stra-	hunc	4cc\	-a-	-stra-	hunc
4E-\	5 _	-tam	-vit	a-	(8e-\L	-tam	-vit	a-	.	(8g\L	-tam	-vit	a-	4b-\	-tam	-vit	a-
.	.	.	.	.	8d\J)	.	.	.	.	8f\J)	.	.	.	.	.	.	.
=25	=25	=25	=25	=25	=25	=25	=25	=25	=25	=25	=25	=25	=25	=25	=25	=25	=25
4.F\	5 4	Vir-	gra-	-ſpi-	4.c\	Vir-	gra-	-ſpi-	.	4.f\	Vir-	gra-	-ſpi-	4b-\	Vir-	gra-	-ſpi-
.	x 3	.	.	.	.	.	.	.	.	.	.	.	.	4a\	-gi-	-ti-	-ci-
8FF/	.	-gi-	-ti-	-ci-	8c\	-gi-	-ti-	-ci-	.	8f\	-gi-	-ti-	-ci-	.	.	.	.
!	!	!	!LO:MO:mod=-a.	!	!	!	!	!	!	!	!	!LO:MO:mod=-a.	!	!	!	!LO:MO:mod=-a.	!
2BB-/	.	-nem.	-â.	-am.	2d\	-nem.	-a.	-am.	.	2f\	-nem.	-â.	-am.	2b-\	-nem.	-â.	-am.
!LO:TX:b:i:mod= :t=Repetat[ur]	!	!	!	!	!	!	!	!	!	!	!	!	!	!	!	!	!
==	==	==	==	==	==	==	==	==	==	==	==	==	==	==	==	==	==
*-	*-	*-	*-	*-	*-	*-	*-	*-	*-	*-	*-	*-	*-	*-	*-	*-	*-
!!!system-decoration: [*]
!!!RDF**kern: < = below
!!!filter-modern: shed -e "s/^(\d+[\/\\]right)/$1yy/I; s/^custos:/Xcustos:/I; s/LO:N:/LO:n:$1/L; s/TX(.*):t=P:/tx$1:t=P:/LG" | shed -k -e "s/[,<]/$1/gD" | shed -k -e "s/([^a-gA-Gn#X-])[<>]/$1/g" | sic -sq | modori -m | autostem -r | tie -s | humtr -p | shed -e "s/-//B"
!!!ENC: Krzysztof Stępień
!!!END: 2021-03-04
!!!EED: Andrzej Kubiczek
!!!EEV: 2023-08-18
!!!ENC-modern: Andrzej Kubiczek
!!!END-modern: 2023-08-18
!!!ENC-iiif: Lidia Bialucha
!!!END-iiif: 2022-09-16
